X: 29936
T: O'Sullivan's March
R: jig
M: 6/8
K: Gmajor
|:"G"DBA ABd|edB A2D|GBA B2G|"D"AGE GFE|
"G"DBA ABd|edB A2D|GBA B2G|1 "D"AGF G3:|2 "D"AGF Gdg||
|:"C"e3 e3|egf edB|"G"ded d2 d|dgB BAG|
"C"c3 dcd|egB A2 D|"D"GBA B2 G|1 "D"AGG GBd:|2 "D"AGG "G"G3||

